X:1
T:King-Pin -- Jig
R:reel
B:Ryan's Mammoth Collection
N: 117 659
Z: Contributed by Ray Davies,  ray:davies99.freeserve.co.uk
M:2/4
L:1/16
K:A
vE2AB cezue | vfece a2{g}a2 | vE2AB cezue | vfedc B"4"e^d"4"e |
zuEAB cezue | fe^de faga | bgaf ecAB | zucBG A4:|
|:vA2{g}a2 A2{g}a2 | fe^de f4  | z2ue2 ve4  | u((3cBA)BG AGFE |
  vA2{g}a2 A2{g}a2 | fe^de faga | bgaf ecAB | zucBG A4 :|
